;FLAVOR:Marlin
;TIME:5537
;Filament used: 3.08567m
;Layer height: 0.2
;MINX:83.85
;MINY:82
;MINZ:0.2
;MAXX:151.15
;MAXY:153
;MAXZ:22
;Generated with Cura_SteamEngine 4.12.0
M140 S60
M105
M190 S60
M104 S205
M105
M109 S205
M82 ;absolute extrusion mode
; Ender 3 Custom Start G-code
G92 E0 ; Reset Extruder
G28 ; Home all axes
G1 Z2.0 F3000 ; Move Z Axis up little to prevent scratching of Heat Bed
G1 X0.1 Y20 Z0.3 F5000.0 ; Move to start position
G1 X0.1 Y200.0 Z0.3 F1500.0 E15 ; Draw the first line
G1 X0.4 Y200.0 Z0.3 F5000.0 ; Move to side a little
G1 X0.4 Y20 Z0.3 F1500.0 E30 ; Draw the second line
G92 E0 ; Reset Extruder
G1 Z2.0 F3000 ; Move Z Axis up little to prevent scratching of Heat Bed
G1 X5 Y20 Z0.3 F5000.0 ; Move over to prevent blob squish
G92 E0
G92 E0
G1 F2700 E-5
;LAYER_COUNT:110
;LAYER:0
M107
G0 F6000 X88.191 Y86.478 Z0.2
;TYPE:SKIRT
G1 F2700 E0
G1 F1200 X88.414 Y86.254 E0.01051
G1 X88.598 Y86.075 E0.01905
G1 X89.297 Y85.451 E0.05022
G1 X89.811 Y85.055 E0.0718
G1 X90.182 Y84.786 E0.08704
G1 X90.461 Y84.59 E0.09838
G1 X90.654 Y84.459 E0.10614
G1 X91.452 Y83.965 E0.13735
G1 X92.005 Y83.676 E0.15811
G1 X92.435 Y83.466 E0.17402
G1 X92.726 Y83.329 E0.18472
G1 X92.916 Y83.243 E0.19166
G1 X93.786 Y82.893 E0.22285
G1 X94.442 Y82.684 E0.24575
G1 X94.92 Y82.548 E0.26228
G1 X95.25 Y82.459 E0.27364
G1 X95.457 Y82.407 E0.28074
G1 X96.376 Y82.218 E0.31195
G1 X96.994 Y82.136 E0.33268
G1 X97.415 Y82.092 E0.34676
G1 X97.742 Y82.062 E0.35768
G1 X98.011 Y82.042 E0.36665
G1 X98.662 Y82.013 E0.38833
G1 X99.626 Y82 E0.42039
G1 X135.443 Y82 E1.61167
G1 X136.284 Y82.011 E1.63965
G1 X136.896 Y82.037 E1.66002
G1 X137.307 Y82.066 E1.67372
G1 X137.635 Y82.094 E1.68467
G1 X137.923 Y82.123 E1.6943
G1 X138.851 Y82.257 E1.72549
G1 X139.524 Y82.405 E1.74841
G1 X139.958 Y82.515 E1.7633
G1 X140.402 Y82.635 E1.77859
G1 X141.295 Y82.922 E1.80979
G1 X142 Y83.21 E1.83512
G1 X142.438 Y83.407 E1.85109
G1 X142.875 Y83.613 E1.86716
G1 X143.703 Y84.054 E1.89837
G1 X144.284 Y84.422 E1.92124
G1 X144.652 Y84.671 E1.93602
G1 X144.909 Y84.849 E1.94642
G1 X145.126 Y85.005 E1.9553
G1 X145.863 Y85.585 E1.9865
G1 X146.365 Y86.042 E2.00908
G1 X146.668 Y86.336 E2.02312
G1 X146.891 Y86.559 E2.03361
G1 X147.073 Y86.746 E2.04229
G1 X147.698 Y87.445 E2.07347
G1 X148.095 Y87.961 E2.09513
G1 X148.364 Y88.332 E2.11037
G1 X148.56 Y88.611 E2.12171
G1 X148.691 Y88.804 E2.12947
G1 X149.185 Y89.602 E2.16068
G1 X149.474 Y90.155 E2.18144
G1 X149.684 Y90.585 E2.19735
G1 X149.821 Y90.876 E2.20805
G1 X149.907 Y91.066 E2.21499
G1 X150.257 Y91.936 E2.24618
G1 X150.466 Y92.592 E2.26908
G1 X150.602 Y93.07 E2.28561
G1 X150.691 Y93.4 E2.29697
G1 X150.743 Y93.607 E2.30407
G1 X150.932 Y94.526 E2.33528
G1 X151.014 Y95.144 E2.35601
G1 X151.058 Y95.565 E2.37009
G1 X151.087 Y95.886 E2.38081
G1 X151.107 Y96.153 E2.38972
G1 X151.137 Y96.81 E2.41159
G1 X151.15 Y97.776 E2.44373
G1 X151.149 Y137.438 E3.76289
G1 X151.139 Y138.131 E3.78594
G1 X151.113 Y138.746 E3.80641
G1 X151.084 Y139.157 E3.82012
G1 X151.056 Y139.485 E3.83107
G1 X151.027 Y139.773 E3.84069
G1 X150.893 Y140.701 E3.87188
G1 X150.745 Y141.374 E3.8948
G1 X150.635 Y141.808 E3.90969
G1 X150.512 Y142.262 E3.92533
G1 X150.224 Y143.155 E3.95654
G1 X149.944 Y143.841 E3.98119
G1 X149.747 Y144.28 E3.99719
G1 X149.537 Y144.725 E4.01356
G1 X149.096 Y145.553 E4.04476
G1 X148.726 Y146.138 E4.06778
G1 X148.47 Y146.516 E4.08296
G1 X148.29 Y146.774 E4.09343
G1 X148.141 Y146.981 E4.10191
G1 X147.561 Y147.718 E4.1331
G1 X147.106 Y148.216 E4.15554
G1 X146.809 Y148.522 E4.16972
G1 X146.586 Y148.746 E4.18024
G1 X146.402 Y148.925 E4.18877
G1 X145.703 Y149.549 E4.21994
G1 X145.189 Y149.945 E4.24152
G1 X144.818 Y150.214 E4.25676
G1 X144.539 Y150.41 E4.2681
G1 X144.346 Y150.541 E4.27586
G1 X143.548 Y151.035 E4.30708
G1 X142.995 Y151.324 E4.32783
G1 X142.565 Y151.534 E4.34374
G1 X142.254 Y151.68 E4.35517
G1 X142.063 Y151.766 E4.36214
G1 X141.192 Y152.114 E4.39333
G1 X140.563 Y152.314 E4.41529
G1 X140.086 Y152.45 E4.43179
G1 X139.75 Y152.541 E4.44336
G1 X139.543 Y152.593 E4.45046
G1 X138.624 Y152.782 E4.48167
G1 X138.006 Y152.864 E4.5024
G1 X137.585 Y152.908 E4.51648
G1 X137.258 Y152.938 E4.5274
G1 X136.989 Y152.958 E4.53637
G1 X136.338 Y152.987 E4.55805
G1 X135.374 Y153 E4.59011
G1 X99.395 Y152.999 E5.78678
G1 X98.716 Y152.989 E5.80937
G1 X98.104 Y152.963 E5.82974
G1 X97.693 Y152.934 E5.84344
G1 X97.365 Y152.906 E5.85439
G1 X97.077 Y152.877 E5.86402
G1 X96.149 Y152.743 E5.89521
G1 X95.476 Y152.595 E5.91812
G1 X95.042 Y152.485 E5.93302
G1 X94.598 Y152.365 E5.94831
G1 X93.705 Y152.078 E5.97951
G1 X93 Y151.79 E6.00484
G1 X92.562 Y151.593 E6.02081
G1 X92.125 Y151.387 E6.03688
G1 X91.297 Y150.946 E6.06808
G1 X90.712 Y150.576 E6.09111
G1 X90.334 Y150.32 E6.10629
G1 X90.076 Y150.14 E6.11675
G1 X89.869 Y149.991 E6.12524
G1 X89.132 Y149.411 E6.15643
G1 X88.632 Y148.955 E6.17894
G1 X88.322 Y148.654 E6.19331
G1 X88.098 Y148.43 E6.20385
G1 X87.923 Y148.25 E6.2122
G1 X87.299 Y147.55 E6.24339
G1 X86.905 Y147.039 E6.26485
G1 X86.636 Y146.668 E6.28009
G1 X86.44 Y146.389 E6.29143
G1 X86.309 Y146.196 E6.29919
G1 X85.815 Y145.398 E6.3304
G1 X85.526 Y144.845 E6.35116
G1 X85.316 Y144.415 E6.36707
G1 X85.161 Y144.085 E6.3792
G1 X85.075 Y143.893 E6.3862
G1 X84.729 Y143.021 E6.4174
G1 X84.539 Y142.424 E6.43824
G1 X84.403 Y141.949 E6.45467
G1 X84.312 Y141.613 E6.46625
G1 X84.259 Y141.403 E6.47345
G1 X84.069 Y140.484 E6.50466
G1 X83.982 Y139.834 E6.52648
G1 X83.939 Y139.415 E6.54048
G1 X83.911 Y139.093 E6.55123
G1 X83.891 Y138.819 E6.56037
G1 X83.863 Y138.184 E6.58151
G1 X83.85 Y137.224 E6.61345
G1 X83.851 Y97.508 E7.93441
G1 X83.861 Y96.859 E7.95599
G1 X83.887 Y96.254 E7.97613
G1 X83.916 Y95.843 E7.98984
G1 X83.944 Y95.515 E8.00079
G1 X83.973 Y95.227 E8.01041
G1 X84.107 Y94.299 E8.0416
G1 X84.255 Y93.626 E8.06452
G1 X84.365 Y93.192 E8.07941
G1 X84.488 Y92.738 E8.09506
G1 X84.776 Y91.845 E8.12626
G1 X85.056 Y91.159 E8.15091
G1 X85.253 Y90.72 E8.16691
G1 X85.463 Y90.275 E8.18328
G1 X85.904 Y89.447 E8.21448
G1 X86.274 Y88.862 E8.2375
G1 X86.53 Y88.484 E8.25269
G1 X86.71 Y88.226 E8.26315
G1 X86.859 Y88.019 E8.27163
G1 X87.439 Y87.282 E8.30282
G1 X87.894 Y86.784 E8.32526
G1 X88.191 Y86.478 E8.33944
G0 F6000 X88.478 Y86.756
G1 F1200 X88.693 Y86.541 E8.34956
G1 X88.877 Y86.362 E8.35809
G1 X89.564 Y85.749 E8.38872
G1 X90.046 Y85.378 E8.40895
G1 X90.417 Y85.109 E8.42419
G1 X90.686 Y84.921 E8.43511
G1 X90.879 Y84.79 E8.44286
G1 X91.662 Y84.306 E8.47348
G1 X92.18 Y84.035 E8.49292
G1 X92.61 Y83.825 E8.50884
G1 X92.891 Y83.693 E8.51917
G1 X93.081 Y83.607 E8.5261
G1 X93.935 Y83.264 E8.55671
G1 X94.551 Y83.069 E8.5782
G1 X95.029 Y82.933 E8.59473
G1 X95.347 Y82.847 E8.60569
G1 X95.554 Y82.795 E8.61279
G1 X96.456 Y82.61 E8.64341
G1 X97.035 Y82.533 E8.66284
G1 X97.456 Y82.489 E8.67692
G1 X97.772 Y82.461 E8.68747
G1 X98.041 Y82.441 E8.69644
G1 X98.668 Y82.413 E8.71732
G1 X99.626 Y82.4 E8.74918
G1 X135.443 Y82.4 E9.94046
G1 X136.278 Y82.411 E9.96824
G1 X136.868 Y82.436 E9.98788
G1 X137.279 Y82.465 E10.00158
G1 X137.595 Y82.492 E10.01213
G1 X137.883 Y82.521 E10.02176
G1 X138.794 Y82.653 E10.05237
G1 X139.425 Y82.793 E10.07387
G1 X139.859 Y82.903 E10.08876
G1 X140.296 Y83.021 E10.10382
G1 X141.172 Y83.303 E10.13443
G1 X141.836 Y83.575 E10.15829
G1 X142.274 Y83.772 E10.17426
G1 X142.702 Y83.974 E10.19001
G1 X143.514 Y84.407 E10.22061
G1 X144.06 Y84.753 E10.24211
G1 X144.428 Y85.002 E10.25689
G1 X144.675 Y85.174 E10.2669
G1 X144.892 Y85.33 E10.27579
G1 X145.616 Y85.9 E10.30644
G1 X146.086 Y86.33 E10.32763
G1 X146.389 Y86.624 E10.34167
G1 X146.604 Y86.838 E10.35176
G1 X146.786 Y87.025 E10.36044
G1 X147.399 Y87.712 E10.39106
G1 X147.772 Y88.196 E10.41138
G1 X148.041 Y88.567 E10.42663
G1 X148.229 Y88.836 E10.43754
G1 X148.36 Y89.029 E10.4453
G1 X148.844 Y89.812 E10.47592
G1 X149.115 Y90.33 E10.49536
G1 X149.325 Y90.76 E10.51128
G1 X149.457 Y91.041 E10.5216
G1 X149.543 Y91.231 E10.52854
G1 X149.886 Y92.085 E10.55915
G1 X150.081 Y92.701 E10.58064
G1 X150.217 Y93.179 E10.59717
G1 X150.303 Y93.497 E10.60812
G1 X150.355 Y93.704 E10.61522
G1 X150.54 Y94.606 E10.64585
G1 X150.617 Y95.185 E10.66528
G1 X150.661 Y95.606 E10.67935
G1 X150.688 Y95.916 E10.6897
G1 X150.708 Y96.183 E10.69861
G1 X150.737 Y96.816 E10.71969
G1 X150.75 Y97.776 E10.75162
G1 X150.749 Y137.432 E12.07058
G1 X150.739 Y138.125 E12.09363
G1 X150.714 Y138.718 E12.11337
G1 X150.685 Y139.129 E12.12708
G1 X150.658 Y139.445 E12.13763
G1 X150.629 Y139.733 E12.14725
G1 X150.497 Y140.644 E12.17787
G1 X150.357 Y141.275 E12.19937
G1 X150.247 Y141.709 E12.21426
G1 X150.126 Y142.156 E12.22966
G1 X149.843 Y143.032 E12.26028
G1 X149.579 Y143.677 E12.28346
G1 X149.382 Y144.116 E12.29946
G1 X149.176 Y144.552 E12.3155
G1 X148.743 Y145.364 E12.34611
G1 X148.395 Y145.914 E12.36776
G1 X148.139 Y146.292 E12.38294
G1 X147.965 Y146.541 E12.39304
G1 X147.816 Y146.748 E12.40153
G1 X147.246 Y147.471 E12.43215
G1 X146.819 Y147.938 E12.4532
G1 X146.522 Y148.244 E12.46738
G1 X146.307 Y148.459 E12.47749
G1 X146.123 Y148.638 E12.48603
G1 X145.436 Y149.251 E12.51665
G1 X144.954 Y149.622 E12.53688
G1 X144.583 Y149.891 E12.55213
G1 X144.314 Y150.079 E12.56304
G1 X144.121 Y150.21 E12.5708
G1 X143.338 Y150.694 E12.60142
G1 X142.82 Y150.965 E12.62086
G1 X142.39 Y151.175 E12.63678
G1 X142.09 Y151.315 E12.64779
G1 X141.899 Y151.401 E12.65475
G1 X141.044 Y151.743 E12.68538
G1 X140.453 Y151.93 E12.706
G1 X139.976 Y152.066 E12.7225
G1 X139.653 Y152.153 E12.73362
G1 X139.446 Y152.205 E12.74072
G1 X138.544 Y152.39 E12.77135
G1 X137.965 Y152.467 E12.79077
G1 X137.544 Y152.511 E12.80485
G1 X137.228 Y152.539 E12.8154
G1 X136.959 Y152.559 E12.82438
G1 X136.332 Y152.587 E12.84525
G1 X135.374 Y152.6 E12.87712
G1 X99.401 Y152.599 E14.07358
G1 X98.722 Y152.589 E14.09617
G1 X98.132 Y152.564 E14.11581
G1 X97.721 Y152.535 E14.12951
G1 X97.405 Y152.508 E14.14006
G1 X97.117 Y152.479 E14.14969
G1 X96.206 Y152.347 E14.18031
G1 X95.575 Y152.207 E14.2018
G1 X95.141 Y152.097 E14.2167
G1 X94.704 Y151.979 E14.23175
G1 X93.828 Y151.697 E14.26236
G1 X93.164 Y151.425 E14.28623
G1 X92.726 Y151.228 E14.3022
G1 X92.298 Y151.026 E14.31794
G1 X91.486 Y150.593 E14.34855
G1 X90.936 Y150.245 E14.37019
G1 X90.558 Y149.989 E14.38538
G1 X90.309 Y149.815 E14.39548
G1 X90.102 Y149.666 E14.40397
G1 X89.379 Y149.096 E14.43459
G1 X88.911 Y148.668 E14.45568
G1 X88.601 Y148.367 E14.47005
G1 X88.385 Y148.151 E14.48021
G1 X88.21 Y147.971 E14.48856
G1 X87.597 Y147.284 E14.51918
G1 X87.228 Y146.804 E14.53932
G1 X86.959 Y146.433 E14.55456
G1 X86.771 Y146.164 E14.56548
G1 X86.64 Y145.971 E14.57324
G1 X86.156 Y145.188 E14.60385
G1 X85.885 Y144.67 E14.6233
G1 X85.675 Y144.24 E14.63921
G1 X85.526 Y143.921 E14.65092
G1 X85.44 Y143.729 E14.65792
G1 X85.101 Y142.873 E14.68854
G1 X84.923 Y142.314 E14.70806
G1 X84.787 Y141.839 E14.72449
G1 X84.7 Y141.515 E14.73565
G1 X84.647 Y141.305 E14.74285
G1 X84.461 Y140.403 E14.77348
G1 X84.38 Y139.793 E14.79395
G1 X84.337 Y139.374 E14.80796
G1 X84.31 Y139.064 E14.81831
G1 X84.29 Y138.79 E14.82745
G1 X84.263 Y138.178 E14.84782
G1 X84.25 Y137.224 E14.87955
G1 X84.251 Y97.514 E16.20031
G1 X84.261 Y96.865 E16.2219
G1 X84.286 Y96.282 E16.24131
G1 X84.315 Y95.871 E16.25502
G1 X84.342 Y95.555 E16.26556
G1 X84.371 Y95.267 E16.27519
G1 X84.503 Y94.356 E16.30581
G1 X84.643 Y93.725 E16.3273
G1 X84.753 Y93.291 E16.3422
G1 X84.874 Y92.844 E16.3576
G1 X85.157 Y91.968 E16.38822
G1 X85.421 Y91.323 E16.4114
G1 X85.618 Y90.884 E16.4274
G1 X85.824 Y90.448 E16.44344
G1 X86.257 Y89.636 E16.47405
G1 X86.605 Y89.086 E16.49569
G1 X86.861 Y88.708 E16.51088
G1 X87.035 Y88.459 E16.52098
G1 X87.184 Y88.252 E16.52946
G1 X87.754 Y87.529 E16.56009
G1 X88.181 Y87.062 E16.58113
G1 X88.478 Y86.756 E16.59532
G0 F6000 X88.765 Y87.035
G1 F1200 X88.972 Y86.828 E16.60505
G1 X89.156 Y86.649 E16.61359
G1 X89.83 Y86.048 E16.64363
G1 X90.281 Y85.702 E16.66253
G1 X90.652 Y85.433 E16.67777
G1 X90.911 Y85.251 E16.6883
G1 X91.104 Y85.12 E16.69606
G1 X91.873 Y84.647 E16.72609
G1 X92.356 Y84.395 E16.74421
G1 X92.786 Y84.185 E16.76012
G1 X93.056 Y84.058 E16.77005
G1 X93.246 Y83.972 E16.77699
G1 X94.084 Y83.636 E16.80701
G1 X94.661 Y83.453 E16.82715
G1 X95.139 Y83.317 E16.84368
G1 X95.445 Y83.235 E16.85421
G1 X95.652 Y83.183 E16.86131
G1 X96.537 Y83.002 E16.89136
G1 X97.077 Y82.931 E16.90947
G1 X97.498 Y82.887 E16.92355
G1 X97.802 Y82.86 E16.9337
G1 X98.071 Y82.84 E16.94267
G1 X98.674 Y82.813 E16.96275
G1 X99.626 Y82.8 E16.99442
G1 X135.443 Y82.8 E18.18569
G1 X136.272 Y82.811 E18.21327
G1 X136.84 Y82.835 E18.23218
G1 X137.251 Y82.864 E18.24588
G1 X137.555 Y82.89 E18.25603
G1 X137.843 Y82.919 E18.26566
G1 X138.737 Y83.049 E18.2957
G1 X139.327 Y83.181 E18.31581
G1 X139.957 Y83.342 E18.33744
G1 X140.19 Y83.406 E18.34548
G1 X141.049 Y83.684 E18.37551
G1 X141.672 Y83.94 E18.39791
G1 X142.11 Y84.137 E18.41388
G1 X142.529 Y84.334 E18.42928
G1 X143.326 Y84.76 E18.45934
G1 X143.836 Y85.084 E18.47944
G1 X144.204 Y85.333 E18.49421
G1 X144.442 Y85.499 E18.50386
G1 X144.659 Y85.655 E18.51275
G1 X145.368 Y86.214 E18.54278
G1 X145.808 Y86.617 E18.56263
G1 X146.111 Y86.911 E18.57667
G1 X146.318 Y87.117 E18.58638
G1 X146.5 Y87.304 E18.59506
G1 X147.1 Y87.978 E18.62508
G1 X147.448 Y88.431 E18.64408
G1 X147.717 Y88.802 E18.65932
G1 X147.899 Y89.061 E18.66985
G1 X148.03 Y89.254 E18.6776
G1 X148.503 Y90.023 E18.70763
G1 X148.755 Y90.506 E18.72575
G1 X148.965 Y90.936 E18.74167
G1 X149.092 Y91.206 E18.75159
G1 X149.178 Y91.396 E18.75853
G1 X149.514 Y92.234 E18.78856
G1 X149.697 Y92.811 E18.80869
G1 X149.833 Y93.289 E18.82522
G1 X149.915 Y93.595 E18.83576
G1 X149.967 Y93.802 E18.84286
G1 X150.148 Y94.687 E18.8729
G1 X150.219 Y95.227 E18.89101
G1 X150.263 Y95.648 E18.90509
G1 X150.29 Y95.946 E18.91505
G1 X150.31 Y96.213 E18.92395
G1 X150.337 Y96.822 E18.94423
G1 X150.35 Y97.776 E18.97596
G1 X150.349 Y137.426 E20.29472
G1 X150.339 Y138.119 E20.31778
G1 X150.315 Y138.69 E20.33678
G1 X150.286 Y139.101 E20.35049
G1 X150.26 Y139.405 E20.36064
G1 X150.231 Y139.693 E20.37026
G1 X150.101 Y140.587 E20.40031
G1 X149.969 Y141.177 E20.42042
G1 X149.805 Y141.817 E20.44239
G1 X149.741 Y142.049 E20.4504
G1 X149.462 Y142.909 E20.48047
G1 X149.214 Y143.513 E20.50219
G1 X149.017 Y143.952 E20.51819
G1 X148.909 Y144.185 E20.52673
G1 X148.816 Y144.379 E20.53389
G1 X148.39 Y145.176 E20.56394
G1 X148.063 Y145.69 E20.58421
G1 X147.807 Y146.068 E20.59939
G1 X147.64 Y146.307 E20.60909
G1 X147.491 Y146.514 E20.61757
G1 X146.932 Y147.223 E20.6476
G1 X146.532 Y147.659 E20.66728
G1 X146.235 Y147.965 E20.68146
G1 X146.028 Y148.172 E20.6912
G1 X145.844 Y148.351 E20.69974
G1 X145.17 Y148.952 E20.72977
G1 X144.719 Y149.298 E20.74868
G1 X144.348 Y149.567 E20.76392
G1 X144.089 Y149.749 E20.77445
G1 X143.896 Y149.88 E20.78221
G1 X143.127 Y150.353 E20.81224
G1 X142.644 Y150.605 E20.83036
G1 X142.214 Y150.815 E20.84627
G1 X141.926 Y150.951 E20.85687
G1 X141.735 Y151.037 E20.86383
G1 X140.896 Y151.371 E20.89387
G1 X140.344 Y151.545 E20.91312
G1 X139.867 Y151.681 E20.92961
G1 X139.555 Y151.765 E20.94036
G1 X139.348 Y151.817 E20.94746
G1 X138.463 Y151.998 E20.9775
G1 X137.923 Y152.069 E20.99562
G1 X137.502 Y152.113 E21.0097
G1 X137.198 Y152.14 E21.01985
G1 X136.929 Y152.16 E21.02882
G1 X136.326 Y152.187 E21.0489
G1 X135.374 Y152.2 E21.08056
G1 X99.407 Y152.199 E22.27683
G1 X98.728 Y152.189 E22.29942
G1 X98.16 Y152.165 E22.31833
G1 X97.749 Y152.136 E22.33203
G1 X97.445 Y152.11 E22.34218
G1 X97.157 Y152.081 E22.3518
G1 X96.263 Y151.951 E22.38185
G1 X95.673 Y151.819 E22.40196
G1 X95.043 Y151.658 E22.42359
G1 X94.81 Y151.594 E22.43162
G1 X93.951 Y151.316 E22.46165
G1 X93.328 Y151.06 E22.48406
G1 X92.89 Y150.863 E22.50003
G1 X92.471 Y150.666 E22.51543
G1 X91.674 Y150.24 E22.54549
G1 X91.16 Y149.913 E22.56575
G1 X90.782 Y149.657 E22.58093
G1 X90.543 Y149.49 E22.59063
G1 X90.336 Y149.341 E22.59911
G1 X89.627 Y148.782 E22.62914
G1 X89.19 Y148.381 E22.64887
G1 X88.88 Y148.08 E22.66324
G1 X88.672 Y147.872 E22.67302
G1 X88.497 Y147.692 E22.68137
G1 X87.896 Y147.017 E22.71143
G1 X87.552 Y146.569 E22.73022
G1 X87.283 Y146.198 E22.74546
G1 X87.101 Y145.939 E22.75599
G1 X86.97 Y145.746 E22.76375
