;FLAVOR:Marlin
;TIME:1779
;Filament used: 1.09309m
;Layer height: 0.2
;MINX:27.042
;MINY:27.049
;MINZ:0.2
;MAXX:207.935
;MAXY:207.939
;MAXZ:2.8
;Generated with Cura_SteamEngine 4.12.0
M140 S60
M105
M190 S60
M104 S205
M105
M109 S205
M82 ;absolute extrusion mode
; Ender 3 Custom Start G-code
G92 E0 ; Reset Extruder
G28 ; Home all axes
G1 Z2.0 F3000 ; Move Z Axis up little to prevent scratching of Heat Bed
G1 X0.1 Y20 Z0.3 F5000.0 ; Move to start position
G1 X0.1 Y200.0 Z0.3 F1500.0 E15 ; Draw the first line
G1 X0.4 Y200.0 Z0.3 F5000.0 ; Move to side a little
G1 X0.4 Y20 Z0.3 F1500.0 E30 ; Draw the second line
G92 E0 ; Reset Extruder
G1 Z2.0 F3000 ; Move Z Axis up little to prevent scratching of Heat Bed
G1 X5 Y20 Z0.3 F5000.0 ; Move over to prevent blob squish
G92 E0
G92 E0
G1 F2700 E-5
;LAYER_COUNT:14
;LAYER:0
M107
G0 F6000 X31.311 Y37.424 Z0.2
;TYPE:SKIRT
G1 F2700 E0
G1 F1200 X37.529 Y31.207 E0.29245
G1 X38.01 Y30.739 E0.31477
G1 X38.491 Y30.298 E0.33648
G1 X38.579 Y30.222 E0.34035
G1 X38.955 Y29.911 E0.35657
G1 X39.173 Y29.739 E0.36581
G1 X39.934 Y29.19 E0.39702
G1 X40.855 Y28.646 E0.4326
G1 X40.946 Y28.598 E0.43602
G1 X41.385 Y28.378 E0.45235
G1 X41.597 Y28.278 E0.46015
G1 X41.849 Y28.163 E0.46936
G1 X42.096 Y28.054 E0.47834
G1 X42.969 Y27.713 E0.50951
G1 X43.869 Y27.447 E0.54073
G1 X44.479 Y27.312 E0.56151
G1 X44.71 Y27.268 E0.56933
G1 X45.235 Y27.181 E0.58703
G1 X45.441 Y27.152 E0.59395
G1 X46.374 Y27.061 E0.62513
G1 X47.287 Y27.049 E0.65549
G1 X47.638 Y27.059 E0.66717
G1 X48.574 Y27.126 E0.69838
G1 X49.746 Y27.325 E0.73792
G1 X49.91 Y27.362 E0.74352
G1 X50.503 Y27.513 E0.76387
G1 X50.847 Y27.611 E0.77576
G1 X51.737 Y27.906 E0.80695
G1 X52.599 Y28.276 E0.83815
G1 X53.201 Y28.589 E0.86072
G1 X53.455 Y28.731 E0.8704
G1 X53.797 Y28.93 E0.88356
G1 X54.072 Y29.097 E0.89426
G1 X54.852 Y29.617 E0.92544
G1 X55.477 Y30.11 E0.95191
G1 X55.635 Y30.244 E0.9588
G1 X56.054 Y30.618 E0.97748
G1 X56.287 Y30.837 E0.98812
G1 X56.531 Y31.074 E0.99943
G1 X176.915 Y151.458 E6.66193
G1 X203.785 Y178.333 E7.92593
G1 X204.312 Y178.878 E7.95114
G1 X204.915 Y179.555 E7.9813
G1 X205.123 Y179.809 E7.99222
G1 X205.685 Y180.559 E8.02339
G1 X206.182 Y181.355 E8.0546
G1 X206.535 Y182.032 E8.07999
G1 X206.723 Y182.438 E8.09487
G1 X206.814 Y182.646 E8.10243
G1 X206.956 Y182.986 E8.11468
G1 X207.107 Y183.378 E8.12865
G1 X207.262 Y183.801 E8.14364
G1 X207.547 Y184.695 E8.17484
G1 X207.755 Y185.61 E8.20605
G1 X207.884 Y186.538 E8.23722
G1 X207.934 Y187.536 E8.27045
G1 X207.935 Y187.754 E8.2777
G1 X207.926 Y188.238 E8.2938
G1 X207.906 Y188.745 E8.31068
G1 X207.83 Y189.679 E8.34185
G1 X207.673 Y190.604 E8.37305
G1 X207.529 Y191.201 E8.39348
G1 X207.471 Y191.414 E8.40082
G1 X207.203 Y192.26 E8.43034
G1 X207.125 Y192.476 E8.43798
G1 X206.769 Y193.344 E8.46918
G1 X206.341 Y194.178 E8.50036
G1 X206.018 Y194.709 E8.52103
G1 X205.903 Y194.887 E8.52808
G1 X205.62 Y195.304 E8.54484
G1 X205.374 Y195.649 E8.55893
G1 X204.798 Y196.389 E8.59012
G1 X204.35 Y196.885 E8.61235
G1 X203.661 Y197.602 E8.64543
G1 X197.579 Y203.686 E8.93155
G1 X197.019 Y204.231 E8.95754
G1 X196.319 Y204.855 E8.98873
G1 X195.801 Y205.254 E9.01048
G1 X195.307 Y205.611 E9.03075
G1 X194.147 Y206.343 E9.07637
G1 X193.926 Y206.464 E9.08475
G1 X193.085 Y206.879 E9.11594
G1 X192.082 Y207.265 E9.15169
G1 X191.842 Y207.344 E9.16009
G1 X190.94 Y207.598 E9.19126
G1 X190.019 Y207.776 E9.22246
G1 X189.216 Y207.865 E9.24933
G1 X188.541 Y207.915 E9.27184
G1 X187.369 Y207.939 E9.31083
G1 X187.277 Y207.936 E9.31389
G1 X186.342 Y207.866 E9.34508
G1 X185.025 Y207.628 E9.38959
G1 X184.714 Y207.552 E9.40024
G1 X184.122 Y207.389 E9.42066
G1 X184.007 Y207.354 E9.42466
G1 X183.122 Y207.043 E9.45586
G1 X182.236 Y206.642 E9.48821
G1 X181.814 Y206.426 E9.50397
G1 X181.576 Y206.299 E9.51295
G1 X180.769 Y205.822 E9.54413
G1 X180.004 Y205.279 E9.57533
G1 X179.36 Y204.737 E9.60332
G1 X179.066 Y204.47 E9.61653
G1 X178.683 Y204.105 E9.63413
G1 X174.797 Y200.219 E9.81692
G1 X149.063 Y174.52 E11.02654
G1 X31.195 Y56.651 E16.57071
G1 X30.679 Y56.119 E16.59536
G1 X30.058 Y55.422 E16.62641
G1 X29.955 Y55.296 E16.63183
G1 X29.393 Y54.545 E16.66302
G1 X28.941 Y53.827 E16.69124
G1 X28.756 Y53.506 E16.70357
G1 X28.612 Y53.248 E16.71339
G1 X28.5 Y53.041 E16.72122
G1 X28.09 Y52.197 E16.75243
G1 X27.752 Y51.322 E16.78363
G1 X27.542 Y50.625 E16.80784
G1 X27.45 Y50.278 E16.81978
G1 X27.299 Y49.626 E16.84204
G1 X27.258 Y49.422 E16.84896
G1 X27.112 Y48.496 E16.88014
G1 X27.045 Y47.523 E16.91258
G1 X27.043 Y47.441 E16.91531
G1 X27.042 Y46.973 E16.93087
G1 X27.047 Y46.698 E16.94002
G1 X27.104 Y45.762 E16.97121
G1 X27.279 Y44.642 E17.00891
G1 X27.314 Y44.475 E17.01459
G1 X27.446 Y43.917 E17.03366
G1 X27.523 Y43.626 E17.04367
G1 X27.801 Y42.731 E17.07484
G1 X28.314 Y41.529 E17.11831
G1 X28.538 Y41.08 E17.135
G1 X28.992 Y40.26 E17.16617
G1 X29.571 Y39.404 E17.20054
G1 X29.734 Y39.186 E17.2096
G1 X30.237 Y38.562 E17.23626
G1 X30.316 Y38.471 E17.24026
G1 X30.731 Y38.02 E17.26065
G1 X31.311 Y37.424 E17.28831
G0 F6000 X31.594 Y37.707
G1 F1200 X37.808 Y31.494 E17.58057
G1 X38.289 Y31.026 E17.60289
G1 X38.753 Y30.601 E17.62382
G1 X38.841 Y30.525 E17.62769
G1 X39.203 Y30.225 E17.64333
G1 X39.421 Y30.053 E17.65256
G1 X40.168 Y29.515 E17.68318
G1 X41.042 Y28.999 E17.71694
G1 X41.133 Y28.951 E17.72036
G1 X41.556 Y28.74 E17.73608
G1 X42.01 Y28.529 E17.75273
G1 X42.257 Y28.42 E17.76171
G1 X43.115 Y28.086 E17.79234
G1 X43.999 Y27.826 E17.82298
G1 X44.554 Y27.705 E17.84188
G1 X44.785 Y27.661 E17.8497
G1 X45.29 Y27.577 E17.86672
G1 X45.496 Y27.548 E17.87364
G1 X46.413 Y27.46 E17.90428
G1 X47.276 Y27.449 E17.93299
G1 X47.627 Y27.459 E17.94467
G1 X48.545 Y27.525 E17.97528
G1 X49.658 Y27.715 E18.01283
G1 X49.822 Y27.752 E18.01843
G1 X50.393 Y27.898 E18.03803
G1 X50.737 Y27.996 E18.04993
G1 X51.611 Y28.286 E18.08055
G1 X52.456 Y28.651 E18.11117
G1 X53.006 Y28.938 E18.1318
G1 X53.26 Y29.08 E18.14148
G1 X53.589 Y29.272 E18.15415
G1 X53.864 Y29.439 E18.16485
G1 X54.629 Y29.95 E18.19545
G1 X55.218 Y30.415 E18.22041
G1 X55.376 Y30.549 E18.2273
G1 X55.78 Y30.909 E18.2453
G1 X56.013 Y31.128 E18.25593
G1 X56.248 Y31.357 E18.26685
G1 X176.632 Y151.741 E23.92934
G1 X203.497 Y178.611 E25.19311
G1 X204.024 Y179.156 E25.21832
G1 X204.605 Y179.808 E25.24737
G1 X204.813 Y180.062 E25.25829
G1 X205.365 Y180.799 E25.28891
G1 X205.851 Y181.581 E25.31954
G1 X206.175 Y182.205 E25.34292
G1 X206.356 Y182.598 E25.35731
G1 X206.447 Y182.806 E25.36486
G1 X206.584 Y183.134 E25.37669
G1 X206.732 Y183.516 E25.39031
G1 X206.887 Y183.939 E25.40529
G1 X207.166 Y184.816 E25.4359
G1 X207.368 Y185.715 E25.46655
G1 X207.491 Y186.627 E25.49716
G1 X207.534 Y187.537 E25.52746
G1 X207.535 Y187.755 E25.53471
G1 X207.527 Y188.222 E25.55024
G1 X207.507 Y188.729 E25.56712
G1 X207.431 Y189.646 E25.59772
G1 X207.275 Y190.554 E25.62837
G1 X207.143 Y191.096 E25.64692
G1 X207.085 Y191.309 E25.65426
G1 X206.827 Y192.124 E25.6827
G1 X206.749 Y192.34 E25.69033
G1 X206.399 Y193.192 E25.72097
G1 X205.976 Y194.01 E25.7516
G1 X205.682 Y194.492 E25.77038
G1 X205.567 Y194.67 E25.77743
G1 X205.295 Y195.072 E25.79357
G1 X205.049 Y195.417 E25.80766
G1 X204.482 Y196.143 E25.8383
G1 X204.061 Y196.608 E25.85916
G1 X203.372 Y197.325 E25.89224
G1 X197.296 Y203.403 E26.17808
G1 X196.741 Y203.944 E26.20386
G1 X196.053 Y204.556 E26.23449
G1 X195.567 Y204.929 E26.25486
G1 X195.073 Y205.286 E26.27513
G1 X193.955 Y205.993 E26.31913
G1 X193.734 Y206.114 E26.32751
G1 X192.908 Y206.52 E26.35812
G1 X191.957 Y206.885 E26.392
G1 X191.717 Y206.964 E26.40041
G1 X190.831 Y207.213 E26.43102
G1 X189.927 Y207.385 E26.46162
G1 X189.186 Y207.466 E26.48642
G1 X188.511 Y207.516 E26.50893
G1 X187.383 Y207.539 E26.54645
G1 X187.291 Y207.536 E26.54951
G1 X186.373 Y207.466 E26.58014
G1 X185.12 Y207.239 E26.62249
G1 X184.809 Y207.163 E26.63314
G1 X184.239 Y207.007 E26.65279
G1 X184.124 Y206.972 E26.65679
G1 X183.255 Y206.666 E26.68743
G1 X182.417 Y206.286 E26.71804
G1 X182.003 Y206.073 E26.73352
G1 X181.765 Y205.946 E26.7425
G1 X180.972 Y205.478 E26.77312
G1 X180.223 Y204.942 E26.80375
G1 X179.629 Y204.441 E26.8296
G1 X179.335 Y204.174 E26.84281
G1 X178.966 Y203.822 E26.85977
G1 X175.08 Y199.936 E27.04256
G1 X149.346 Y174.237 E28.25218
G1 X31.482 Y56.372 E33.79617
G1 X30.966 Y55.84 E33.82082
G1 X30.368 Y55.169 E33.85071
G1 X30.265 Y55.043 E33.85612
G1 X29.714 Y54.305 E33.88676
G1 X29.288 Y53.627 E33.91339
G1 X29.103 Y53.306 E33.92571
G1 X28.964 Y53.057 E33.9352
G1 X28.852 Y52.85 E33.94302
G1 X28.45 Y52.022 E33.97364
G1 X28.12 Y51.162 E34.00428
G1 X27.929 Y50.523 E34.02646
G1 X27.837 Y50.176 E34.0384
G1 X27.691 Y49.548 E34.05984
G1 X27.65 Y49.344 E34.06676
G1 X27.508 Y48.434 E34.0974
G1 X27.445 Y47.513 E34.1281
G1 X27.443 Y47.431 E34.13083
G1 X27.442 Y46.98 E34.14583
G1 X27.447 Y46.705 E34.15498
G1 X27.503 Y45.786 E34.1856
G1 X27.67 Y44.724 E34.22136
G1 X27.705 Y44.557 E34.22703
G1 X27.833 Y44.02 E34.24539
G1 X27.91 Y43.729 E34.2554
G1 X28.184 Y42.85 E34.28603
G1 X28.672 Y41.708 E34.32733
G1 X28.896 Y41.259 E34.34402
G1 X29.342 Y40.454 E34.37463
G1 X29.892 Y39.643 E34.40722
G1 X30.055 Y39.425 E34.41628
G1 X30.54 Y38.824 E34.44196
G1 X30.619 Y38.733 E34.44597
G1 X31.018 Y38.298 E34.4656
G1 X31.594 Y37.707 E34.49305
G0 F6000 X31.877 Y37.99
G1 F1200 X38.087 Y31.78 E34.78515
G1 X38.568 Y31.312 E34.80747
G1 X39.014 Y30.903 E34.8276
G1 X39.102 Y30.827 E34.83147
G1 X39.451 Y30.539 E34.84652
G1 X39.669 Y30.367 E34.85575
G1 X40.402 Y29.84 E34.88578
G1 X41.228 Y29.353 E34.91767
G1 X41.319 Y29.305 E34.92109
G1 X41.726 Y29.102 E34.93622
G1 X41.938 Y29.002 E34.94402
G1 X42.172 Y28.895 E34.95257
G1 X42.419 Y28.786 E34.96155
G1 X43.261 Y28.459 E34.9916
G1 X44.128 Y28.207 E35.02163
G1 X44.628 Y28.098 E35.03865
G1 X44.859 Y28.054 E35.04647
G1 X45.346 Y27.974 E35.06288
G1 X45.552 Y27.945 E35.0698
G1 X46.451 Y27.858 E35.09984
G1 X47.264 Y27.849 E35.12689
G1 X47.615 Y27.859 E35.13856
G1 X48.516 Y27.925 E35.16861
G1 X49.57 Y28.105 E35.20418
G1 X49.734 Y28.142 E35.20977
G1 X50.284 Y28.282 E35.22864
G1 X50.628 Y28.38 E35.24054
G1 X51.484 Y28.666 E35.27056
G1 X52.312 Y29.026 E35.30059
G1 X52.81 Y29.287 E35.31929
G1 X53.064 Y29.429 E35.32897
G1 X53.381 Y29.614 E35.34117
G1 X53.656 Y29.781 E35.35188
G1 X54.407 Y30.283 E35.38192
G1 X54.959 Y30.72 E35.40534
G1 X55.117 Y30.854 E35.41223
G1 X55.506 Y31.201 E35.42957
G1 X55.739 Y31.42 E35.4402
G1 X55.965 Y31.64 E35.45069
G1 X176.349 Y152.024 E41.11319
G1 X203.21 Y178.889 E42.37674
G1 X203.737 Y179.434 E42.40195
G1 X204.296 Y180.062 E42.42992
G1 X204.504 Y180.316 E42.44084
G1 X205.044 Y181.039 E42.47085
G1 X205.519 Y181.807 E42.50089
G1 X205.814 Y182.377 E42.52223
G1 X205.99 Y182.759 E42.53622
G1 X206.081 Y182.967 E42.54377
G1 X206.213 Y183.282 E42.55513
G1 X206.356 Y183.654 E42.56839
G1 X206.511 Y184.077 E42.58337
G1 X206.784 Y184.937 E42.61338
G1 X206.98 Y185.819 E42.64343
G1 X207.097 Y186.715 E42.67349
G1 X207.134 Y187.539 E42.70092
G1 X207.135 Y187.757 E42.70817
G1 X207.127 Y188.206 E42.72311
G1 X207.107 Y188.713 E42.73998
G1 X207.032 Y189.613 E42.77002
G1 X206.877 Y190.503 E42.80007
G1 X206.757 Y190.991 E42.81678
G1 X206.699 Y191.204 E42.82413
G1 X206.451 Y191.988 E42.85147
G1 X206.373 Y192.204 E42.85911
G1 X206.029 Y193.039 E42.88915
G1 X205.612 Y193.841 E42.91921
G1 X205.346 Y194.275 E42.93615
G1 X205.231 Y194.453 E42.94319
G1 X204.969 Y194.84 E42.95874
G1 X204.723 Y195.185 E42.97283
G1 X204.167 Y195.896 E43.00285
G1 X203.773 Y196.33 E43.02235
G1 X203.084 Y197.047 E43.05542
G1 X197.013 Y203.12 E43.34103
G1 X196.462 Y203.657 E43.36662
G1 X195.787 Y204.257 E43.39666
G1 X195.332 Y204.605 E43.41571
G1 X194.838 Y204.962 E43.43598
G1 X193.762 Y205.642 E43.47832
G1 X193.541 Y205.763 E43.4867
G1 X192.731 Y206.161 E43.51671
G1 X191.832 Y206.505 E43.54873
G1 X191.592 Y206.584 E43.55713
G1 X190.723 Y206.828 E43.58715
G1 X189.835 Y206.994 E43.6172
G1 X189.156 Y207.067 E43.63991
G1 X188.481 Y207.117 E43.66243
G1 X187.396 Y207.14 E43.69852
G1 X187.304 Y207.137 E43.70158
G1 X186.403 Y207.067 E43.73164
G1 X185.215 Y206.85 E43.77181
G1 X184.904 Y206.774 E43.78246
G1 X184.355 Y206.624 E43.80138
G1 X184.24 Y206.589 E43.80538
G1 X183.389 Y206.288 E43.83541
G1 X182.598 Y205.929 E43.8643
G1 X182.191 Y205.72 E43.87951
G1 X181.953 Y205.593 E43.88849
G1 X181.176 Y205.133 E43.91852
G1 X180.442 Y204.606 E43.94857
G1 X179.898 Y204.145 E43.97229
G1 X179.604 Y203.878 E43.9855
G1 X179.249 Y203.539 E44.00182
G1 X175.367 Y199.658 E44.1844
G1 X149.624 Y173.949 E45.39447
G1 X31.769 Y56.094 E50.93801
G1 X31.253 Y55.562 E50.96266
G1 X30.678 Y54.916 E50.99142
G1 X30.575 Y54.79 E50.99684
G1 X30.035 Y54.066 E51.02688
G1 X29.635 Y53.427 E51.05195
G1 X29.45 Y53.106 E51.06427
G1 X29.316 Y52.867 E51.07339
G1 X29.204 Y52.66 E51.08121
G1 X28.81 Y51.847 E51.11126
G1 X28.489 Y51.003 E51.1413
G1 X28.316 Y50.42 E51.16152
G1 X28.224 Y50.073 E51.17346
G1 X28.083 Y49.469 E51.19409
G1 X28.042 Y49.265 E51.20101
G1 X27.903 Y48.372 E51.23107
G1 X27.845 Y47.504 E51.26001
G1 X27.843 Y47.422 E51.26273
G1 X27.842 Y46.988 E51.27717
G1 X27.847 Y46.713 E51.28632
G1 X27.903 Y45.811 E51.31638
G1 X28.062 Y44.806 E51.35022
G1 X28.097 Y44.639 E51.35589
G1 X28.219 Y44.122 E51.37356
G1 X28.296 Y43.831 E51.38357
G1 X28.566 Y42.969 E51.41362
G1 X29.03 Y41.887 E51.45277
G1 X29.254 Y41.438 E51.46946
G1 X29.692 Y40.648 E51.49951
G1 X30.212 Y39.883 E51.53027
G1 X30.375 Y39.665 E51.53933
G1 X30.842 Y39.086 E51.56407
G1 X30.921 Y38.995 E51.56807
G1 X31.305 Y38.577 E51.58695
G1 X31.877 Y37.99 E51.61421
G1 F2700 E46.61421
;MESH:shamrock_band_small.stl
G0 F6000 X46.159 Y47.804
G0 X44.702 Y47.678
G0 X45.342 Y49.27
G0 X45.739 Y49.876
G0 X50.592 Y55.29
G0 X50.766 Y56.059
G0 X51.137 Y56.861
G0 X51.944 Y57.843
G0 X52.718 Y58.401
G0 X53.336 Y58.686
G0 X53.878 Y58.823
G0 X55.912 Y58.925
;TYPE:WALL-INNER
G1 F2700 E51.61421
G1 F1200 X56.068 Y58.871 E51.6197
G1 X56.717 Y58.61 E51.64297
G1 X56.854 Y58.53 E51.64825
G1 X57.417 Y58.165 E51.67056
G1 X57.887 Y57.746 E51.69151
G1 X57.989 Y57.617 E51.69697
G1 X58.563 Y56.809 E51.72994
G1 X58.93 Y55.895 E51.7627
G1 X59.072 Y55.002 E51.79277
G1 X59.091 Y54.853 E51.79777
G1 X59.022 Y53.959 E51.82759
G1 X58.778 Y53.117 E51.85675
G1 X58.43 Y52.431 E51.88233
G1 X57.963 Y51.835 E51.90752
G1 X57.76 Y51.63 E51.91711
G1 X56.95 Y51.003 E51.95118
G1 X56.768 Y50.904 E51.95807
G1 X56.11 Y50.612 E51.98202
G1 X55.311 Y50.433 E52.00925
G1 X54.791 Y50.408 E52.02657
G1 X50.005 Y45.633 E52.25143
G1 X49.387 Y45.214 E52.27626
G1 X48.941 Y45.042 E52.29216
G1 X48.554 Y44.937 E52.30549
G1 X48.059 Y44.88 E52.32207
G1 X47.415 Y44.94 E52.34358
G1 X46.492 Y45.262 E52.37609
G1 X46.336 Y45.354 E52.38212
G1 X45.616 Y45.98 E52.41385
G1 X45.494 Y46.133 E52.42036
G1 X45.081 Y46.934 E52.45033
G1 X45.012 Y47.078 E52.45564
G1 X44.893 Y47.695 E52.47654
G1 X44.903 Y48.321 E52.49737
G1 X44.936 Y48.459 E52.50209
G1 X45.13 Y49.2 E52.52756
G1 X45.201 Y49.349 E52.53305
G1 X45.541 Y49.876 E52.55391
G1 X45.616 Y49.98 E52.55818
G1 X50.406 Y54.789 E52.78393
G1 X50.432 Y55.312 E52.80135
G1 X50.612 Y56.11 E52.82856
G1 X50.903 Y56.767 E52.85245
G1 X51.002 Y56.949 E52.85935
G1 X51.629 Y57.759 E52.89341
G1 X51.838 Y57.965 E52.90318
G1 X52.497 Y58.467 E52.93073
G1 X52.646 Y58.546 E52.93634
G1 X53.279 Y58.837 E52.95951
G1 X53.788 Y58.985 E52.97714
G1 X53.924 Y58.999 E52.98169
G1 X54.979 Y59.078 E53.01688
G1 X55.193 Y59.055 E53.02403
G1 X55.912 Y58.925 E53.04834
G0 F6000 X55.81 Y58.537
;TYPE:WALL-OUTER
G1 F1200 X55.927 Y58.496 E53.05246
G1 X56.54 Y58.25 E53.07443
G1 X56.644 Y58.189 E53.07844
G1 X57.174 Y57.846 E53.09944
G1 X57.595 Y57.471 E53.11819
G1 X57.669 Y57.377 E53.12217
G1 X58.209 Y56.616 E53.1532
G1 X58.542 Y55.788 E53.18289
G1 X58.676 Y54.946 E53.21124
G1 X58.689 Y54.843 E53.2147
G1 X58.626 Y54.031 E53.24178
G1 X58.404 Y53.264 E53.26834
G1 X58.091 Y52.647 E53.29135
G1 X57.662 Y52.1 E53.31447
G1 X57.494 Y51.93 E53.32242
G1 X56.731 Y51.339 E53.35452
G1 X56.591 Y51.263 E53.35982
G1 X55.984 Y50.994 E53.3819
G1 X55.257 Y50.831 E53.40668
G1 X54.619 Y50.801 E53.42793
G1 X49.749 Y45.943 E53.65672
G1 X49.2 Y45.571 E53.67877
G1 X48.816 Y45.423 E53.69246
G1 X48.478 Y45.331 E53.70411
