;FLAVOR:Marlin
;TIME:4161
;Filament used: 2.48471m
;Layer height: 0.2
;MINX:81.5
;MINY:86.5
;MINZ:0.2
;MAXX:153.5
;MAXY:148.5
;MAXZ:15
;Generated with Cura_SteamEngine 4.12.0
M140 S60
M105
M190 S60
M104 S205
M105
M109 S205
M82 ;absolute extrusion mode
; Ender 3 Custom Start G-code
G92 E0 ; Reset Extruder
G28 ; Home all axes
G1 Z2.0 F3000 ; Move Z Axis up little to prevent scratching of Heat Bed
G1 X0.1 Y20 Z0.3 F5000.0 ; Move to start position
G1 X0.1 Y200.0 Z0.3 F1500.0 E15 ; Draw the first line
G1 X0.4 Y200.0 Z0.3 F5000.0 ; Move to side a little
G1 X0.4 Y20 Z0.3 F1500.0 E30 ; Draw the second line
G92 E0 ; Reset Extruder
G1 Z2.0 F3000 ; Move Z Axis up little to prevent scratching of Heat Bed
G1 X5 Y20 Z0.3 F5000.0 ; Move over to prevent blob squish
G92 E0
G92 E0
G1 F2700 E-5
;LAYER_COUNT:75
;LAYER:0
M107
G0 F6000 X84.698 Y89.764 Z0.2
;TYPE:SKIRT
G1 F2700 E0
G1 F1200 X85.386 Y89.127 E0.03119
G1 X86.126 Y88.551 E0.06237
G1 X86.912 Y88.039 E0.09357
G1 X87.739 Y87.597 E0.12476
G1 X88.601 Y87.227 E0.15596
G1 X89.491 Y86.931 E0.18716
G1 X90.403 Y86.713 E0.21835
G1 X91.33 Y86.572 E0.24953
G1 X92.201 Y86.513 E0.27857
G1 X92.522 Y86.504 E0.28925
G1 X92.83 Y86.5 E0.29949
G1 X141.793 Y86.5 E1.92801
G1 X142.649 Y86.511 E1.95648
G1 X143.585 Y86.565 E1.98767
G1 X144.513 Y86.697 E2.01884
G1 X145.427 Y86.909 E2.05005
G1 X146.319 Y87.198 E2.08124
G1 X147.184 Y87.561 E2.11244
G1 X148.014 Y87.997 E2.14362
G1 X148.805 Y88.502 E2.17483
G1 X149.549 Y89.073 E2.20603
G1 X150.242 Y89.705 E2.23722
G1 X150.879 Y90.393 E2.26841
G1 X151.454 Y91.134 E2.2996
G1 X151.965 Y91.92 E2.33078
G1 X152.407 Y92.748 E2.362
G1 X152.776 Y93.61 E2.39319
G1 X153.071 Y94.5 E2.42437
G1 X153.289 Y95.412 E2.45556
G1 X153.429 Y96.34 E2.48678
G1 X153.487 Y97.201 E2.51548
G1 X153.496 Y97.521 E2.52612
G1 X153.5 Y97.83 E2.5364
G1 X153.499 Y136.9 E3.83588
G1 X153.49 Y137.627 E3.86006
G1 X153.439 Y138.564 E3.89127
G1 X153.307 Y139.492 E3.92245
G1 X153.098 Y140.406 E3.95363
G1 X152.811 Y141.299 E3.98483
G1 X152.449 Y142.165 E4.01605
G1 X152.015 Y142.996 E4.04723
G1 X151.511 Y143.787 E4.07842
G1 X150.942 Y144.532 E4.1096
G1 X150.311 Y145.227 E4.14082
G1 X149.624 Y145.865 E4.17201
G1 X148.885 Y146.442 E4.20319
G1 X148.099 Y146.954 E4.23439
G1 X147.273 Y147.397 E4.26557
G1 X146.411 Y147.769 E4.29679
G1 X145.522 Y148.065 E4.32796
G1 X144.61 Y148.285 E4.35916
G1 X143.683 Y148.426 E4.39035
G1 X142.799 Y148.487 E4.41982
G1 X142.478 Y148.496 E4.4305
G1 X142.17 Y148.5 E4.44074
G1 X93.065 Y148.499 E6.07398
G1 X92.367 Y148.49 E6.0972
G1 X91.431 Y148.438 E6.12838
G1 X90.502 Y148.306 E6.15959
G1 X89.588 Y148.096 E6.19078
G1 X88.695 Y147.809 E6.22198
G1 X87.83 Y147.446 E6.25318
G1 X86.999 Y147.012 E6.28436
G1 X86.208 Y146.508 E6.31556
G1 X85.463 Y145.938 E6.34675
G1 X84.769 Y145.307 E6.37795
G1 X84.132 Y144.62 E6.40911
G1 X83.555 Y143.88 E6.44032
G1 X83.043 Y143.094 E6.47152
G1 X82.6 Y142.267 E6.50273
G1 X82.229 Y141.406 E6.53391
G1 X81.933 Y140.516 E6.5651
G1 X81.714 Y139.604 E6.5963
G1 X81.573 Y138.677 E6.62749
G1 X81.513 Y137.788 E6.65712
G1 X81.504 Y137.455 E6.6682
G1 X81.5 Y137.158 E6.67808
G1 X81.501 Y98.025 E7.97965
G1 X81.51 Y97.36 E8.00177
G1 X81.563 Y96.424 E8.03295
G1 X81.695 Y95.495 E8.06416
G1 X81.906 Y94.581 E8.09536
G1 X82.194 Y93.689 E8.12654
G1 X82.557 Y92.824 E8.15774
G1 X82.992 Y91.993 E8.18893
G1 X83.496 Y91.203 E8.2201
G1 X84.066 Y90.458 E8.2513
G1 X84.698 Y89.764 E8.28252
G0 F6000 X85.089 Y89.939
G1 F1200 X85.774 Y89.323 E8.31316
G1 X86.51 Y88.77 E8.34378
G1 X87.291 Y88.282 E8.37441
G1 X88.111 Y87.864 E8.40502
G1 X88.965 Y87.519 E8.43566
G1 X89.845 Y87.249 E8.46627
G1 X90.745 Y87.057 E8.49688
G1 X91.659 Y86.943 E8.52751
G1 X92.212 Y86.913 E8.54593
G1 X92.533 Y86.904 E8.55662
G1 X92.83 Y86.9 E8.56649
G1 X141.793 Y86.9 E10.19501
G1 X142.643 Y86.911 E10.22328
G1 X143.562 Y86.964 E10.2539
G1 X144.473 Y87.097 E10.28452
G1 X145.369 Y87.308 E10.31514
G1 X146.243 Y87.596 E10.34575
G1 X147.09 Y87.959 E10.37639
G1 X147.901 Y88.394 E10.407
G1 X148.671 Y88.898 E10.43761
G1 X149.395 Y89.467 E10.46824
G1 X150.067 Y90.097 E10.49888
G1 X150.682 Y90.782 E10.52949
G1 X151.235 Y91.518 E10.56011
G1 X151.722 Y92.299 E10.59073
G1 X152.139 Y93.12 E10.62135
G1 X152.484 Y93.974 E10.65199
G1 X152.753 Y94.854 E10.68259
G1 X152.945 Y95.755 E10.71323
G1 X153.058 Y96.668 E10.74383
G1 X153.087 Y97.212 E10.76195
G1 X153.096 Y97.532 E10.7726
G1 X153.1 Y97.83 E10.78251
G1 X153.099 Y136.895 E12.08182
G1 X153.09 Y137.622 E12.106
G1 X153.039 Y138.541 E12.13661
G1 X152.908 Y139.453 E12.16726
G1 X152.698 Y140.349 E12.19787
G1 X152.412 Y141.224 E12.22848
G1 X152.051 Y142.071 E12.25911
G1 X151.617 Y142.883 E12.28973
G1 X151.115 Y143.655 E12.32036
G1 X150.547 Y144.38 E12.35099
G1 X149.919 Y145.053 E12.38161
G1 X149.235 Y145.669 E12.41222
G1 X148.5 Y146.223 E12.44284
G1 X147.72 Y146.712 E12.47346
G1 X146.9 Y147.131 E12.50408
G1 X146.047 Y147.477 E12.5347
G1 X145.167 Y147.748 E12.56532
G1 X144.267 Y147.941 E12.59594
G1 X143.353 Y148.056 E12.62658
G1 X142.788 Y148.087 E12.6454
G1 X142.467 Y148.096 E12.65608
G1 X142.17 Y148.1 E12.66596
G1 X93.07 Y148.099 E14.29903
G1 X92.372 Y148.09 E14.32225
G1 X91.453 Y148.038 E14.35286
G1 X90.542 Y147.907 E14.38348
G1 X89.646 Y147.697 E14.41408
G1 X88.771 Y147.41 E14.44471
G1 X87.924 Y147.048 E14.47535
G1 X87.112 Y146.614 E14.50597
G1 X86.341 Y146.112 E14.53657
G1 X85.616 Y145.544 E14.5672
G1 X84.943 Y144.915 E14.59784
G1 X84.328 Y144.231 E14.62844
G1 X83.774 Y143.496 E14.65905
G1 X83.286 Y142.715 E14.68968
G1 X82.867 Y141.895 E14.72031
G1 X82.521 Y141.042 E14.75092
G1 X82.251 Y140.162 E14.78154
G1 X82.058 Y139.261 E14.81219
G1 X81.944 Y138.348 E14.84279
G1 X81.913 Y137.777 E14.86181
G1 X81.904 Y137.444 E14.87289
G1 X81.9 Y137.158 E14.8824
G1 X81.901 Y98.031 E16.18377
G1 X81.91 Y97.366 E16.20589
G1 X81.962 Y96.446 E16.23654
G1 X82.094 Y95.535 E16.26715
G1 X82.305 Y94.639 E16.29777
G1 X82.592 Y93.764 E16.3284
G1 X82.955 Y92.918 E16.35902
G1 X83.389 Y92.106 E16.38964
G1 X83.892 Y91.335 E16.42026
G1 X84.461 Y90.611 E16.45089
G1 X85.089 Y89.939 E16.48148
G0 F6000 X85.481 Y90.117
G1 F1200 X86.162 Y89.524 E16.51151
G1 X86.894 Y88.994 E16.54157
G1 X87.669 Y88.531 E16.5716
G1 X88.482 Y88.138 E16.60163
G1 X89.327 Y87.818 E16.63168
G1 X90.196 Y87.575 E16.66169
G1 X91.084 Y87.409 E16.69174
G1 X92.223 Y87.313 E16.72976
G1 X92.544 Y87.304 E16.74044
G1 X92.83 Y87.3 E16.74995
G1 X141.793 Y87.3 E18.37847
G1 X142.637 Y87.311 E18.40654
G1 X143.539 Y87.364 E18.43659
G1 X144.432 Y87.496 E18.46662
G1 X145.31 Y87.707 E18.49665
G1 X146.166 Y87.995 E18.52669
G1 X146.993 Y88.357 E18.55672
G1 X147.785 Y88.792 E18.58677
G1 X148.536 Y89.294 E18.61682
G1 X149.239 Y89.861 E18.64686
G1 X149.889 Y90.488 E18.67689
G1 X150.481 Y91.17 E18.70693
G1 X151.011 Y91.901 E18.73696
G1 X151.473 Y92.677 E18.767
G1 X151.866 Y93.49 E18.79703
G1 X152.184 Y94.335 E18.82706
G1 X152.427 Y95.205 E18.85711
G1 X152.592 Y96.093 E18.88715
G1 X152.687 Y97.223 E18.92486
G1 X152.696 Y97.543 E18.93551
G1 X152.7 Y97.83 E18.94506
G1 X152.699 Y136.89 E20.2442
G1 X152.69 Y137.617 E20.26838
G1 X152.639 Y138.519 E20.29843
G1 X152.508 Y139.413 E20.32848
G1 X152.299 Y140.291 E20.3585
G1 X152.013 Y141.148 E20.38855
G1 X151.652 Y141.976 E20.41859
G1 X151.22 Y142.768 E20.4486
G1 X150.719 Y143.52 E20.47865
G1 X150.153 Y144.224 E20.5087
G1 X149.528 Y144.875 E20.53871
G1 X148.847 Y145.469 E20.56877
G1 X148.116 Y146 E20.59882
G1 X147.342 Y146.464 E20.62883
G1 X146.529 Y146.858 E20.65888
G1 X145.685 Y147.178 E20.6889
G1 X144.815 Y147.423 E20.71896
G1 X143.928 Y147.589 E20.74898
G1 X142.777 Y147.687 E20.7874
G1 X142.456 Y147.696 E20.79808
G1 X142.17 Y147.7 E20.80759
G1 X93.075 Y147.699 E22.4405
G1 X92.377 Y147.69 E22.46372
G1 X91.476 Y147.639 E22.49373
G1 X90.582 Y147.507 E22.52379
G1 X89.704 Y147.298 E22.55381
G1 X88.847 Y147.011 E22.58387
G1 X88.02 Y146.65 E22.61388
G1 X87.227 Y146.217 E22.64393
G1 X86.476 Y145.716 E22.67396
G1 X85.772 Y145.15 E22.704
G1 X85.121 Y144.524 E22.73404
G1 X84.528 Y143.843 E22.76407
G1 X83.998 Y143.112 E22.79411
G1 X83.534 Y142.337 E22.82415
G1 X83.14 Y141.524 E22.8542
G1 X82.82 Y140.68 E22.88422
G1 X82.576 Y139.81 E22.91427
G1 X82.41 Y138.922 E22.94432
G1 X82.313 Y137.767 E22.98287
G1 X82.304 Y137.434 E22.99395
G1 X82.3 Y137.158 E23.00313
G1 X82.301 Y98.036 E24.30433
G1 X82.31 Y97.371 E24.32645
G1 X82.362 Y96.469 E24.3565
G1 X82.494 Y95.576 E24.38653
G1 X82.704 Y94.698 E24.41655
G1 X82.991 Y93.841 E24.44661
G1 X83.353 Y93.014 E24.47664
G1 X83.786 Y92.222 E24.50666
G1 X84.288 Y91.471 E24.53671
G1 X84.855 Y90.767 E24.56677
G1 X85.481 Y90.117 E24.59679
G1 F2700 E19.59679
;MESH:Part1.STL
G0 F6000 X132.91 Y120.571
G0 X133.312 Y121.919
G0 X134.752 Y120.992
G0 X137.582 Y122.035
G0 X137.765 Y122.781
;TYPE:WALL-INNER
G1 F2700 E24.59679
G1 F1200 X139.942 Y122.781 E24.66919
G1 X139.942 Y118.325 E24.8174
G1 X137.765 Y118.325 E24.88981
G1 X137.744 Y118.331 E24.89053
G1 X137.23 Y118.285 E24.9077
G1 X137.136 Y118.284 E24.91082
G1 X136.639 Y118.317 E24.92739
G1 X136.171 Y118.421 E24.94334
G1 X135.763 Y118.579 E24.95789
G1 X135.494 Y118.728 E24.96812
G1 X135.236 Y118.915 E24.97872
G1 X134.95 Y119.218 E24.99257
G1 X134.832 Y119.441 E25.00096
G1 X134.829 Y119.343
G1 X134.585 Y119.343 E25.00908
G1 X134.625 Y119.108 E25.01268
G1 X133.997 Y118.679 E25.03798
G1 X133.625 Y118.506 E25.05163
G1 X133.166 Y118.375 E25.0675
G1 X133.068 Y118.357 E25.07082
G1 X132.442 Y118.288 E25.09176
G1 X132.18 Y118.284 E25.10048
G1 X131.582 Y118.319 E25.1204
G1 X131.058 Y118.423 E25.13817
G1 X130.583 Y118.597 E25.15499
G1 X130.238 Y118.792 E25.16818
G1 X129.834 Y119.15 E25.18613
G1 X129.595 Y119.547 E25.20154
G1 X129.562 Y119.699 E25.20671
G1 X129.562 Y119.15 E25.21496
G1 X129.562 Y118.325 E25.2424
G1 X127.385 Y118.325 E25.3148
G1 X127.385 Y120.058 E25.37244
G1 X127.374 Y120.138 E25.37513
G1 X127.122 Y120.129 E25.38352
G1 X127.05 Y120.087 E25.38569
G1 X127.038 Y119.949 E25.38981
G1 X127.038 Y118.325 E25.43766
G1 X124.861 Y118.325 E25.51007
G1 X124.861 Y120.013 E25.56621
G1 X124.85 Y120.138 E25.57039
G1 X124.549 Y120.109 E25.57722
G1 X124.516 Y119.986 E25.58067
G1 X124.515 Y118.325 E25.62852
G1 X122.338 Y118.325 E25.70093
G1 X122.338 Y121.845 E25.818
G1 X124.515 Y121.845 E25.89041
G1 X124.515 Y121.825 E25.89108
G1 X124.935 Y121.88 E25.90516
G1 X125.17 Y121.886 E25.91298
G1 X125.619 Y121.85 E25.92797
G1 X125.895 Y121.788 E25.93737
G1 X126.228 Y121.663 E25.9492
G1 X126.325 Y121.6 E25.95305
G1 X126.58 Y121.717 E25.96238
G1 X127.02 Y121.834 E25.97753
G1 X127.453 Y121.883 E25.99202
G1 X127.637 Y121.886 E25.99814
G1 X128.024 Y121.864 E26.01103
G1 X128.411 Y121.788 E26.02415
G1 X128.736 Y121.671 E26.03564
G1 X129.129 Y121.427 E26.05102
G1 X129.371 Y121.143 E26.06343
G1 X129.518 Y120.757 E26.07717
G1 X129.55 Y120.426 E26.08823
G1 X129.669 Y120.765 E26.09107
G1 X129.97 Y121.154 E26.10743
G1 X130.233 Y121.366 E26.11867
G1 X130.579 Y121.565 E26.13194
G1 X130.713 Y121.625 E26.13683
G1 X131.15 Y121.772 E26.15216
G1 X131.724 Y121.868 E26.17152
G1 X132.152 Y121.887 E26.18577
G1 X132.752 Y121.852 E26.20576
G1 X133.267 Y121.754 E26.22319
G1 X133.709 Y121.599 E26.23877
G1 X134.07 Y121.407 E26.25237
G1 X134.508 Y121.028 E26.27164
G1 X134.749 Y120.627 E26.2872
G1 X134.756 Y120.594 E26.28832
G1 X134.965 Y120.986 E26.29637
G1 X135.232 Y121.268 E26.30928
G1 X135.511 Y121.469 E26.32072
G1 X135.892 Y121.664 E26.33495
G1 X136.297 Y121.794 E26.3491
G1 X136.746 Y121.868 E26.36424
G1 X137.131 Y121.887 E26.37706
G1 X137.695 Y121.842 E26.39588
G1 X137.765 Y121.824 E26.39828
G1 X137.765 Y122.781 E26.43011
G0 F6000 X138.165 Y122.381
;TYPE:WALL-OUTER
G1 F1200 X139.542 Y122.381 E26.47591
G1 X139.542 Y118.725 E26.59751
G1 X138.165 Y118.725 E26.64331
G1 X138.165 Y118.871 E26.64816
G1 X138.063 Y118.826 E26.65187
G1 X137.676 Y118.727 E26.66516
G1 X137.209 Y118.685 E26.68075
G1 X137.146 Y118.684 E26.68285
G1 X136.696 Y118.714 E26.69785
G1 X136.287 Y118.805 E26.71179
G1 X135.933 Y118.942 E26.72441
G1 X135.709 Y119.066 E26.73293
G1 X135.501 Y119.217 E26.74147
G1 X135.278 Y119.453 E26.75227
G1 X135.126 Y119.742 E26.76313
G1 X135.07 Y120.081 E26.77456
G1 X135.129 Y120.443 E26.78676
G1 X135.293 Y120.75 E26.79834
G1 X135.497 Y120.966 E26.80822
G1 X135.72 Y121.127 E26.81737
G1 X136.045 Y121.293 E26.82951
G1 X136.391 Y121.404 E26.84159
G1 X136.788 Y121.47 E26.85498
G1 X137.125 Y121.486 E26.8662
G1 X137.63 Y121.446 E26.88305
G1 X138.026 Y121.347 E26.89662
G1 X138.165 Y121.288 E26.90165
G1 X138.165 Y122.381 E26.938
G1 F2700 E21.938
G0 F6000 X137.965 Y122.381
G0 X136.977 Y121.603
G0 X136.358 Y121.539
G0 X135.648 Y121.247
G0 X135.179 Y120.832
G0 X134.996 Y120.487
G0 X134.963 Y120.055
G0 X134.443 Y119.543
G1 F2700 E26.938
G0 F6000 X134.443 Y119.743
G1 F1200 X133.42 Y119.743 E26.97202
G1 X134.145 Y119.547 E26.997
G1 X134.188 Y119.294 E27.00554
G1 X133.798 Y119.028 E27.02124
G1 X133.485 Y118.882 E27.03273
G1 X133.075 Y118.765 E27.04691
G1 X133.01 Y118.753 E27.04911
G1 X132.417 Y118.688 E27.06895
G1 X132.188 Y118.684 E27.07657
G1 X131.633 Y118.717 E27.09506
G1 X131.166 Y118.809 E27.11089
G1 X130.751 Y118.961 E27.12559
G1 X130.472 Y119.119 E27.13625
G1 X130.145 Y119.409 E27.15079
G1 X129.972 Y119.697 E27.16196
G1 X129.905 Y120.004 E27.17242
G1 X129.917 Y120.264 E27.18107
G1 X130.025 Y120.571 E27.1919
G1 X130.258 Y120.872 E27.20456
G1 X130.46 Y121.035 E27.21319
G1 X130.761 Y121.208 E27.22474
G1 X130.859 Y121.252 E27.22831
G1 X131.247 Y121.383 E27.24193
G1 X131.766 Y121.469 E27.25943
G1 X132.149 Y121.486 E27.27218
G1 X132.703 Y121.454 E27.29064
G1 X133.163 Y121.367 E27.30621
G1 X133.548 Y121.232 E27.31978
G1 X133.842 Y121.075 E27.33086
G1 X134.198 Y120.767 E27.34652
G1 X134.373 Y120.476 E27.35781
G1 X134.45 Y120.132 E27.36954
G1 X134.454 Y120.051 E27.37224
G1 X134.443 Y119.743 E27.38249
G1 F2700 E22.38249
G0 F6000 X134.443 Y119.543
G0 X134.333 Y119.233
G0 X133.867 Y118.907
G0 X133.03 Y118.615
G0 X132.552 Y118.576
G0 X131.213 Y118.596
G1 F2700 E27.38249
G0 F6000 X131.436 Y119.743
G1 F1200 X131.807 Y119.605 E27.39565
G1 X132.103 Y119.574 E27.40555
G1 X132.173 Y119.573 E27.40788
G1 X132.492 Y119.597 E27.41852
G1 X132.737 Y119.655 E27.42689
G1 X132.951 Y119.743 E27.43459
G1 X131.436 Y119.743 E27.48498
G1 F2700 E22.48498
G0 F6000 X131.213 Y118.596
G0 X129.297 Y119.104
G0 X129.29 Y118.597
G0 X122.61 Y118.597
G0 X122.538 Y121.445
G1 F2700 E27.48498
G0 F6000 X122.738 Y121.445
G1 F1200 X124.115 Y121.445 E27.53078
G1 X124.115 Y121.295 E27.53577
G1 X124.139 Y121.307 E27.53666
G1 X124.511 Y121.421 E27.5496
G1 X124.966 Y121.481 E27.56486
G1 X125.159 Y121.486 E27.57128
G1 X125.559 Y121.454 E27.58463
G1 X125.78 Y121.404 E27.59217
G1 X126.046 Y121.304 E27.60162
G1 X126.316 Y121.128 E27.61234
G1 X126.433 Y121.209 E27.61707
G1 X126.716 Y121.339 E27.62743
G1 X127.094 Y121.44 E27.64044
G1 X127.479 Y121.483 E27.65333
G1 X127.629 Y121.486 E27.65832
G1 X127.974 Y121.466 E27.66981
G1 X128.304 Y121.401 E27.681
G1 X128.561 Y121.309 E27.69008
G1 X128.865 Y121.12 E27.70198
G1 X129.022 Y120.936 E27.71003
G1 X129.125 Y120.665 E27.71967
G1 X129.162 Y120.278 E27.7326
G1 X129.162 Y118.725 E27.78425
G1 X127.785 Y118.725 E27.83005
G1 X127.785 Y120.083 E27.87522
G1 X127.746 Y120.371 E27.88489
G1 X127.641 Y120.494 E27.89027
G1 X127.32 Y120.556 E27.90114
G1 X127.003 Y120.517 E27.91176
G1 X126.765 Y120.396 E27.92064
G1 X126.66 Y120.21 E27.92775
G1 X126.638 Y119.961 E27.93606
G1 X126.638 Y118.725 E27.97717
G1 X125.261 Y118.725 E28.02297
G1 X125.261 Y120.031 E28.06641
G1 X125.237 Y120.302 E28.07546
G1 X125.15 Y120.455 E28.08131
G1 X124.98 Y120.534 E28.08755
G1 X124.625 Y120.547 E28.09936
G1 X124.369 Y120.474 E28.10822
G1 X124.197 Y120.343 E28.11541
G1 X124.135 Y120.189 E28.12093
G1 X124.116 Y120.009 E28.12695
G1 X124.115 Y118.725 E28.16965
G1 X122.738 Y118.725 E28.21545
G1 X122.738 Y121.445 E28.30592
G0 F6000 X122.538 Y121.445
G0 X119.818 Y121.843
;TYPE:WALL-INNER
G1 F1200 X122.072 Y121.845 E28.38089
G1 X122.072 Y118.325 E28.45894
G1 X119.895 Y118.325 E28.53135
G1 X119.874 Y118.331 E28.53207
G1 X119.36 Y118.285 E28.54924
G1 X119.267 Y118.284 E28.55233
G1 X118.769 Y118.317 E28.56893
G1 X118.301 Y118.421 E28.58488
